X:78
T:Gillian's Surprise
R:reel
C:Paul S. Cranford
O:Cape Breton Island
S:http://www.cranfordpub.com
D:currently unrecorded
B:currently unpublished in book form
Z:psc, (re-formatted,updated 9/17/04)
N:
H:                                                        copyrights Cranford Publications, SOCAN
Q:333
L:1/8
M:C|
K:F
A|{D}F2 FG AFAc|fcfa gdde|fdcB AFFA|GCBG AFFA|
{D}F2 FG AFAc|fcfa gdde|fdcB Acfa|gcde f2 f:|
|:g|afbg afcB|Acfa gddg|afbg afge|cbag affg|
afbg afcB|Acfa gdga|bage fcfa|1gcde f2 f:|2gcde fdc|]
